X:1
T: Always Welcome
C:
R:Reel
I:speed 232
Q:232
K:A
M:4/4
L:1/8
|:AF|E2EF A2AB|cB AB ce eg|fe fg ag af|ec Bc AF FA|
E2EF A2AB|cB AB ce eg|fe fg ag af|ec Bc A2:|
|:c2|A2Ac ec cf|ec ac ec cd|B2Bd fe fg|ag af ed cB|
A2Ac ec cf|ec ac ec ce|fe fg ag af|ec Bc A2:|
|:e2|a2ga fa ea|fa ea fc cB|E2 EF AG AB|cB Ac BF Fe|
a2ga fa ea|fa ea fc ce|fd fg ag af|ec Bc A2:|
